X:990
T:Sir George MacKenzie
C:Niel Gow
S:Book-The Gow Collection
Z:Nigel Gatherer
L:1/8
M:4/4
K:A
f | e2 cA d2 fd | e2 cA dBBa | e2 cA d3 =g | f>ded cA A :|
g | f/g/a ec e2 eg | a2 ec fBBg | a2 ec e2- e>=g | fded cAA ^g |
f/g/a ec e2 eg | a2 ec fBBg | a2 ec e2- e>=g | fded cA A |]
<end>
<start>
